frontend/public/svg/e-commerce/location.svg

<svg width="102" height="162" viewBox="0 0 102 162" fill="none" xmlns="http://www.w3.org/2000/svg">
<path d="M27.5958 120.849C20.9996 122.189 12.5714 124.547 5.89444 130.952C2.54712 134.168 0.878113 138.021 1.20169 141.806C1.51148 145.436 3.66617 148.776 7.26881 151.209C11.1302 153.83 15.3871 155.815 19.8772 157.089C29.6068 159.807 39.6601 161.191 49.7622 161.207C57.3009 161.203 64.8192 160.424 72.1982 158.881C79.3523 157.39 87.632 155.139 94.7599 149.757C98.2037 147.158 100.23 143.963 100.621 140.516C101.015 137.037 99.7388 133.431 96.9271 130.08C93.0042 125.403 87.8171 122.195 81.0693 120.272C78.5444 119.55 75.921 119.068 73.3842 118.6C72.5507 118.446 71.7178 118.293 70.8849 118.13C71.9055 116.539 72.9307 114.954 73.9605 113.376C76.5622 109.372 79.2532 105.231 81.7302 101.058C89.1364 88.5795 97.8591 71.7897 99.5826 52.5642C101.399 32.303 95.0145 17.7991 80.0638 8.22578C69.6937 1.58496 58.122 -0.648498 45.6752 1.59158C26.8567 4.97632 14.5588 15.9805 9.12306 34.2989C5.88275 45.2216 7.06875 56.2665 8.46672 64.6696C10.756 78.4575 15.9286 92.2543 25.2401 109.405C26.6919 112.08 28.2257 114.63 29.8501 117.329C30.4159 118.268 30.983 119.214 31.5514 120.168L30.8295 120.285C29.7019 120.466 28.6426 120.637 27.5958 120.849ZM51.7895 127.563C51.3568 128.123 50.9212 128.686 50.4828 129.255C41.7279 121.787 36.1235 112.24 31.3723 103.015C25.2578 91.1438 18.7232 76.8586 16.6217 60.9068C14.8246 47.255 16.1694 37.1774 20.983 28.221C26.9629 17.0955 38.8498 10.0695 52.7806 9.42563C53.4627 9.39413 54.1411 9.37824 54.8153 9.37824C67.6341 9.37824 78.9684 15.0413 85.4208 24.7656C89.5275 30.9582 91.341 38.1747 91.131 47.475C90.8947 57.8307 88.0317 68.5074 82.1214 81.0723C75.4517 95.2564 66.7415 108.917 55.4939 122.834C54.239 124.385 53.0491 125.928 51.7895 127.563ZM34.7451 125.964C35.4474 125.995 36.1163 126.272 36.6354 126.747C40.5985 131.286 45.5055 134.904 51.0132 137.349C53.4239 138.412 55.5707 137.76 57.3888 135.412L58.6273 133.808C60.3049 131.63 62.0403 129.378 63.8472 127.264C64.3824 126.598 65.1522 126.161 65.9987 126.045C72.1936 126.548 78.7071 127.494 84.3654 130.981C86.7506 132.502 88.8876 134.381 90.7011 136.553C91.0949 136.944 91.404 137.412 91.6107 137.928C91.8175 138.443 91.9173 138.995 91.9035 139.55C91.8083 140.115 91.5989 140.655 91.2885 141.136C90.978 141.618 90.5731 142.032 90.0979 142.353C87.9549 144.058 85.6053 145.486 83.1033 146.602C73.7131 150.772 62.8882 152.85 49.0395 153.14C38.9923 152.77 29.2043 152.177 19.9158 149.047C16.8881 148.059 14.0059 146.671 11.3454 144.921C9.48011 143.663 8.44762 142.193 8.36033 140.668C8.27763 139.231 9.05342 137.771 10.603 136.446C13.9412 133.59 17.6803 131.24 21.7011 129.47C24.9119 128.071 28.4949 127.296 31.9603 126.547C32.809 126.364 33.6577 126.18 34.5004 125.987C34.5809 125.971 34.6629 125.963 34.7451 125.964Z" fill="black"/>
<path d="M71.6559 44.1069C71.6559 43.927 71.6631 43.7473 71.6677 43.5681C71.6999 42.7805 71.6894 41.9917 71.6349 41.2053C71.4085 38.1778 70.4226 35.2566 68.7674 32.7113C67.1127 30.1662 64.8425 28.0794 62.1672 26.6444C59.5673 25.2742 56.6602 24.5922 53.7222 24.6635C50.7844 24.7349 47.9135 25.5573 45.3833 27.0521C39.4106 30.4401 35.6617 36.1457 34.5433 43.5518C33.0908 53.1685 39.9252 62.579 49.7769 64.529C51.1036 64.7941 52.453 64.9289 53.8061 64.9318C62.0976 64.9318 68.8665 59.6438 70.9274 51.0923C71.2463 49.6527 71.4885 48.197 71.6526 46.7316C71.7393 46.072 71.8246 45.4125 71.925 44.7562C71.9388 44.6664 71.9342 44.5746 71.9112 44.4866C71.8889 44.3987 71.8489 44.3162 71.7937 44.244C71.7543 44.1921 71.7077 44.1459 71.6559 44.1069ZM64.2051 44.9052L64.1913 45.1802C64.1775 45.4768 64.1585 45.8771 64.1257 46.2775C63.7812 50.4453 62.2557 53.6883 59.7144 55.6547C57.4546 57.4038 54.4993 58.0227 51.1625 57.4477C49.4206 57.0842 47.7699 56.3732 46.3093 55.357C44.8486 54.3408 43.6079 53.0401 42.6614 51.5333C41.7984 50.1604 41.244 48.6166 41.0368 47.0082C40.8296 45.3998 40.9747 43.7654 41.4617 42.2187C42.7186 37.9282 44.5755 33.7833 49.6102 32.5139C50.8258 32.2002 52.0755 32.0378 53.3309 32.0303C55.7094 31.9733 58.0361 32.7298 59.9263 34.1746C62.7512 36.4088 64.2707 40.22 64.2051 44.9023V44.9052Z" fill="black"/>
</svg>

<svg xmlns="http://www.w3.org/2000/svg" width="102" height="162" fill="none" viewBox="0 0 102 162"><path fill="#000" d="M27.596 120.849c-6.596 1.34-15.025 3.698-21.702 10.103-3.347 3.216-5.016 7.069-4.692 10.854.31 3.63 2.464 6.97 6.067 9.403a43.7 43.7 0 0 0 12.608 5.88 111.7 111.7 0 0 0 29.885 4.118 110 110 0 0 0 22.436-2.326c7.154-1.491 15.434-3.742 22.562-9.124 3.444-2.599 5.47-5.794 5.861-9.241.394-3.479-.882-7.085-3.694-10.436-3.923-4.677-9.11-7.885-15.858-9.808-2.525-.722-5.148-1.204-7.685-1.672-.833-.154-1.666-.307-2.5-.47a723 723 0 0 1 3.076-4.754c2.602-4.004 5.293-8.145 7.77-12.318 7.406-12.479 16.13-29.268 17.853-48.494 1.816-20.261-4.568-34.765-19.52-44.338-10.37-6.641-21.941-8.874-34.388-6.634C26.857 4.976 14.56 15.98 9.123 34.299c-3.24 10.923-2.054 21.968-.656 30.37 2.289 13.789 7.462 27.585 16.773 44.736 1.452 2.675 2.986 5.225 4.61 7.924q.849 1.408 1.701 2.839l-.721.117a81 81 0 0 0-3.234.564m24.193 6.714-1.306 1.692c-8.755-7.468-14.36-17.015-19.11-26.24-6.115-11.871-12.65-26.156-14.751-42.108-1.797-13.652-.453-23.73 4.361-32.686 5.98-11.125 17.867-18.152 31.798-18.795q1.023-.048 2.034-.048c12.82 0 24.153 5.663 30.606 15.388 4.106 6.192 5.92 13.409 5.71 22.709-.236 10.356-3.1 21.032-9.01 33.597-6.67 14.184-15.38 27.845-26.627 41.762a250 250 0 0 0-3.705 4.729m-17.044-1.599a3 3 0 0 1 1.89.783 41.4 41.4 0 0 0 14.378 10.602c2.41 1.063 4.558.411 6.376-1.937l1.238-1.604c1.678-2.178 3.413-4.43 5.22-6.544A3.34 3.34 0 0 1 66 126.045c6.195.503 12.708 1.449 18.366 4.936a27.6 27.6 0 0 1 6.336 5.572 4.08 4.08 0 0 1 1.202 2.997 4.24 4.24 0 0 1-1.806 2.803 32.5 32.5 0 0 1-6.994 4.249c-9.39 4.17-20.215 6.248-34.063 6.538-10.048-.37-19.836-.963-29.124-4.093a35.8 35.8 0 0 1-8.57-4.126c-1.866-1.258-2.898-2.728-2.986-4.253-.082-1.437.693-2.897 2.243-4.222a44.9 44.9 0 0 1 11.098-6.976c3.21-1.399 6.794-2.174 10.26-2.923q1.274-.273 2.54-.56.12-.024.244-.023"/><path fill="#000" d="M71.656 44.107c0-.18.007-.36.012-.539q.048-1.181-.033-2.363a18.05 18.05 0 0 0-9.468-14.56 17.22 17.22 0 0 0-16.784.407c-5.972 3.388-9.721 9.094-10.84 16.5-1.452 9.617 5.382 19.027 15.234 20.977 1.327.265 2.676.4 4.03.403 8.29 0 15.06-5.288 17.12-13.84q.48-2.161.726-4.36c.086-.66.172-1.32.272-1.976a.67.67 0 0 0-.131-.512.7.7 0 0 0-.138-.137m-7.45.798-.015.275c-.014.297-.032.697-.065 1.098-.345 4.167-1.87 7.41-4.412 9.377-2.26 1.749-5.215 2.368-8.551 1.793a13.23 13.23 0 0 1-8.502-5.915 11.19 11.19 0 0 1-1.2-9.314c1.258-4.29 3.114-8.436 8.15-9.705a15.3 15.3 0 0 1 3.72-.484c2.378-.057 4.705.7 6.595 2.145 2.825 2.234 4.345 6.045 4.28 10.727z"/></svg>
